X: 1227
T: Karcığar Örnek-öz (1)
C: Rûhî Ayangil
O: Turkey
F: http://compmusic.upf.edu/node/140
N: karcigar--ornek-oz--nimsofyan--1--ruhi_ayangil
N: makam= karcigar
N: form= ornek-oz
N: usul= nimsofyan = 2/4
M: 2/4
L: 1/16
K: C _2/4B _3/4e ^3/4f 
Q: 1/4=30
%%MIDI tuningsystem comma53
dcd_1/4B c4  | _1/4BABG A4  | g^fg_7/8e f4  | \
w:   |   |   | 
_7/8edec d4  | fgab c'4  | 
w:   |   | 
_bag^f _7/8e3d  | gf_7/8ed c3_1/4B  | \
w:   |   | 
cA_1/4BG A4  | |


